svg/u2614.svg

<svg viewBox="0 0 128 128" xmlns="http://www.w3.org/2000/svg">
  <polygon points="60.7,100.2 60.42,60.65 65.56,60.93 65.85,102.34 " fill="#6AA5AD"/>
  <path d="M48.94,107.67c-3.02-0.15-4.56,2.13-4.17,6.4s2.9,10.74,11.64,10.57 c10.09-0.19,10.85-7.21,10.69-14.97c-0.11-5.4,0-9.68-0.29-9.87s-7.29-0.38-7.68,0.01c-0.39,0.39-0.1,8.83-0.19,10.86 s0.26,6.12-3.49,6.01c-2.91-0.08-3.3-2.52-3.3-3.69S52.82,107.86,48.94,107.67z" fill="#3F7377"/>
  <path d="M53.24,44.47l9.62-17.32c0,0-18.98-2.35-35.83,10.74C5.6,54.53,9,72.78,9,72.78S17.16,65,23.84,65.6 s15.05,8.67,15.05,8.67L53.24,44.47z" fill="#937EF3"/>
  <path d="M65.19,32.46l-1.38-5.31c0,0,19.28-0.21,33.63,9.2C122.13,52.53,119.4,70.6,119.4,70.6 s-5.36-7.46-17.12-6.93S86.2,74.7,86.2,74.7L65.19,32.46z" fill="#5547F4"/>
  <radialGradient id="SVGID_1_" cx="83.836" cy="1.3418" gradientUnits="userSpaceOnUse" r="27.2296">
    <stop offset="0.5167" stop-color="#71D3FF"/>
    <stop offset="0.5807" stop-color="#6CD2FE"/>
    <stop offset="0.6584" stop-color="#5DCEFA"/>
    <stop offset="0.7432" stop-color="#44C8F4"/>
    <stop offset="0.8325" stop-color="#22C0EB"/>
    <stop offset="0.9073" stop-color="#00B7E2"/>
  </radialGradient>
  <path d="M84.12,1.12c-1.2,0.07-2.37,3.37-4.14,7.23s-5.02,7.67-3.42,13.3 c2.18,7.66,14.9,7.61,15.23-2.71c0.11-3.54-3.03-8.55-4.03-10.98C86.76,5.53,85.55,1.04,84.12,1.12z" fill="url(#SVGID_1_)"/>
  <path d="M80.6,14.11c-1.44,0.11-2.71,2.38-2.21,5.72c0.5,3.34,2.84,4.2,3.92,3.7 c1.31-0.61,0.38-2.61,0.04-4.78S82.74,13.94,80.6,14.11z" fill="#ACE8FE"/>
  <radialGradient id="SVGID_2_" cx="101.6049" cy="26.5944" gradientUnits="userSpaceOnUse" r="23.5607">
    <stop offset="0.6096" stop-color="#71D3FF"/>
    <stop offset="0.6627" stop-color="#6CD2FE"/>
    <stop offset="0.7273" stop-color="#5DCEFA"/>
    <stop offset="0.7978" stop-color="#44C8F4"/>
    <stop offset="0.8719" stop-color="#22C0EB"/>
    <stop offset="0.934" stop-color="#00B7E2"/>
  </radialGradient>
  <path d="M101.73,25.96c-1.14-0.07-1.18,2.63-4.51,8.1c-2.21,3.62-4.19,7.73-3.02,11.81 c2.27,7.9,15.04,7.55,15.37-2.76c0.11-3.54-2.01-6.41-3.76-9.73C104.58,31.07,102.65,26.02,101.73,25.96z" fill="url(#SVGID_2_)"/>
  <path d="M98.65,38.46c-1.27-0.43-3.07,1.78-2.91,5.09c0.16,3.29,2.54,5.12,3.89,4.11 c1.26-0.95-0.28-3.66-0.28-5.34C99.34,40.64,99.94,38.9,98.65,38.46z" fill="#ACE8FE"/>
  <radialGradient id="SVGID_3_" cx="22.5969" cy="28.4692" gradientUnits="userSpaceOnUse" r="23.7806">
    <stop offset="0.6694" stop-color="#71D3FF"/>
    <stop offset="0.7176" stop-color="#6CD2FE"/>
    <stop offset="0.7762" stop-color="#5DCEFA"/>
    <stop offset="0.8401" stop-color="#44C8F4"/>
    <stop offset="0.9074" stop-color="#22C0EB"/>
    <stop offset="0.9637" stop-color="#00B7E2"/>
  </radialGradient>
  <path d="M22.75,28.56c-1.01-0.04-2.18,3.17-3.95,7.03s-5.02,6.19-3.87,12.37 c1.51,8.1,15.38,8.51,15.71-1.8c0.11-3.54-2.8-8.29-3.98-10.63C25.22,32.65,23.64,28.6,22.75,28.56z" fill="url(#SVGID_3_)"/>
  <path d="M18.43,41.6c-2.03-0.03-2.33,4.16-1.76,5.97c0.56,1.78,1.4,3.31,3.12,2.92 c1.69-0.39,0.56-3.2,0.27-4.8C19.77,44.08,20.05,41.63,18.43,41.6z" fill="#ACE8FE"/>
  <radialGradient id="SVGID_4_" cx="41.1688" cy="1.1601" gradientUnits="userSpaceOnUse" r="25.5391">
    <stop offset="0.6653" stop-color="#71D3FF"/>
    <stop offset="0.7094" stop-color="#6CD2FE"/>
    <stop offset="0.7628" stop-color="#5DCEFA"/>
    <stop offset="0.8212" stop-color="#44C8F4"/>
    <stop offset="0.8826" stop-color="#22C0EB"/>
    <stop offset="0.934" stop-color="#00B7E2"/>
  </radialGradient>
  <path d="M41.86,1.85c-1.14-0.1-1.97,2.7-2.39,3.65c-1,2.22-5.9,8.33-5.78,14.02 c0.13,6.35,5.17,8.03,8.38,7.91c3.43-0.12,8.32-2.23,7.34-8.92c-0.38-2.57-1.85-5.51-3.16-8.44C44.3,5.68,43.55,2,41.86,1.85z" fill="url(#SVGID_4_)"/>
  <path d="M38.54,14.73c-1.51-0.43-2.83,2.35-2.51,5.36c0.3,2.88,1.77,4.62,3.01,4.25 c2.62-0.78,0.64-3.35,0.57-5.46C39.55,17.01,39.88,15.11,38.54,14.73z" fill="#ACE8FE"/>
  <path d="M86.25,73.94c0,0-1.07-17.66-5.17-26.74C73.6,30.63,63.3,27.42,63.3,27.42s-12.4,6.09-18.91,21.12 s-5.4,25.64-5.4,25.64s10.03-11.46,24.63-9.88C78.22,65.87,86.25,73.94,86.25,73.94z" fill="#6E62ED"/>
  <path d="M59.7,27.86c-0.13-0.51-0.02-7.3-0.06-8.76c-0.06-2.16,1.77-3.54,3.43-3.49 c2.16,0.06,2.92,1.97,2.98,3.3s0.07,8.79,0.06,8.88c-0.08,0.78-1.22,1.52-3.24,1.52C61.41,29.33,59.87,28.56,59.7,27.86z" fill="#6CA4AB"/>
  <path d="M86.18,76.22c1.52-0.09,7.56-10.49,17.06-10.4c12.89,0.13,14.54,6.82,15.89,6.14 c1.49-0.76-0.7-3.54-2.65-5.55c-2.75-2.84-7.16-4.56-14-4.12c-9.96,0.65-16.39,9.49-16.39,9.49s-8.5-9.27-23.39-9.27 C48.29,62.51,39,72.75,39,72.75s-4.71-8.33-16.17-8.53c-10.13-0.18-14.51,7.98-13.8,8.69c0.71,0.71,6.11-5.76,13.67-5.43 c10.4,0.44,14.04,9.13,16.03,9.18c1.99,0.05,9.75-10.43,24.15-10.18C78.34,66.75,84.76,76.31,86.18,76.22z" fill="#004DAE"/>
  <radialGradient id="SVGID_5_" cx="62.7925" cy="34.7985" gradientUnits="userSpaceOnUse" r="23.0381">
    <stop offset="0.5167" stop-color="#71D3FF"/>
    <stop offset="0.5807" stop-color="#6CD2FE"/>
    <stop offset="0.6584" stop-color="#5DCEFA"/>
    <stop offset="0.7432" stop-color="#44C8F4"/>
    <stop offset="0.8325" stop-color="#22C0EB"/>
    <stop offset="0.9073" stop-color="#00B7E2"/>
  </radialGradient>
  <path d="M63.16,33.82c-0.94,0.02-2.37,3.37-4.14,7.23s-5.43,8.06-3.31,13.51 c2.48,6.35,14.46,6.63,15.01-3.27c0.2-3.54-2.87-8.23-3.92-10.63C65.04,36.65,64.01,33.8,63.16,33.82z" fill="url(#SVGID_5_)"/>
  <path d="M58.48,48.04c-1.35-0.1-2.29,2.44-1.55,5c0.75,2.6,2.31,3.66,3.6,3.15c1.65-0.65,0.3-2.55-0.05-4.25 C60.13,50.24,60.53,48.19,58.48,48.04z" fill="#ACE8FE"/>
</svg>

<svg viewBox="0 0 128 128" xmlns="http://www.w3.org/2000/svg">
  <defs>
    <radialGradient id="SVGID_1_" cx="83.836" cy="1.3418" gradientUnits="userSpaceOnUse" r="27.2296">
      <stop offset="0.5167" stop-color="#71D3FF"/>
      <stop offset="0.5807" stop-color="#6CD2FE"/>
      <stop offset="0.6584" stop-color="#5DCEFA"/>
      <stop offset="0.7432" stop-color="#44C8F4"/>
      <stop offset="0.8325" stop-color="#22C0EB"/>
      <stop offset="0.9073" stop-color="#00B7E2"/>
    </radialGradient>
    <radialGradient id="SVGID_2_" cx="101.6049" cy="26.5944" gradientUnits="userSpaceOnUse" r="23.5607">
      <stop offset="0.6096" stop-color="#71D3FF"/>
      <stop offset="0.6627" stop-color="#6CD2FE"/>
      <stop offset="0.7273" stop-color="#5DCEFA"/>
      <stop offset="0.7978" stop-color="#44C8F4"/>
      <stop offset="0.8719" stop-color="#22C0EB"/>
      <stop offset="0.934" stop-color="#00B7E2"/>
    </radialGradient>
    <radialGradient id="SVGID_3_" cx="22.5969" cy="28.4692" gradientUnits="userSpaceOnUse" r="23.7806">
      <stop offset="0.6694" stop-color="#71D3FF"/>
      <stop offset="0.7176" stop-color="#6CD2FE"/>
      <stop offset="0.7762" stop-color="#5DCEFA"/>
      <stop offset="0.8401" stop-color="#44C8F4"/>
      <stop offset="0.9074" stop-color="#22C0EB"/>
      <stop offset="0.9637" stop-color="#00B7E2"/>
    </radialGradient>
    <radialGradient id="SVGID_4_" cx="41.1688" cy="1.1601" gradientUnits="userSpaceOnUse" r="25.5391">
      <stop offset="0.6653" stop-color="#71D3FF"/>
      <stop offset="0.7094" stop-color="#6CD2FE"/>
      <stop offset="0.7628" stop-color="#5DCEFA"/>
      <stop offset="0.8212" stop-color="#44C8F4"/>
      <stop offset="0.8826" stop-color="#22C0EB"/>
      <stop offset="0.934" stop-color="#00B7E2"/>
    </radialGradient>
    <radialGradient id="SVGID_5_" cx="62.7925" cy="34.7985" gradientUnits="userSpaceOnUse" r="23.0381">
      <stop offset="0.5167" stop-color="#71D3FF"/>
      <stop offset="0.5807" stop-color="#6CD2FE"/>
      <stop offset="0.6584" stop-color="#5DCEFA"/>
      <stop offset="0.7432" stop-color="#44C8F4"/>
      <stop offset="0.8325" stop-color="#22C0EB"/>
      <stop offset="0.9073" stop-color="#00B7E2"/>
    </radialGradient>
  </defs>
  <path d="M60.7,100.2 L60.42,60.65 L65.56,60.93 L65.85,102.34 Z" fill="#6AA5AD"/>
  <path d="M48.94,107.67 C45.92,107.52 44.38,109.8 44.77,114.07 C45.16,118.34 47.67,124.81 56.41,124.64 C66.5,124.45 67.26,117.43 67.1,109.67 C66.99,104.27 67.1,99.99 66.81,99.8 C66.52,99.61 59.52,99.42 59.13,99.81 C58.74,100.2 59.03,108.64 58.94,110.67 C58.85,112.7 59.2,116.79 55.45,116.68 C52.54,116.6 52.15,114.16 52.15,112.99 C52.15,111.82 52.82,107.86 48.94,107.67 Z" fill="#3F7377"/>
  <path d="M53.24,44.47 L62.86,27.15 C62.86,27.15 43.88,24.8 27.03,37.89 C5.6,54.53 9,72.78 9,72.78 C9,72.78 17.16,65 23.84,65.6 C30.52,66.2 38.89,74.27 38.89,74.27 L53.24,44.47 Z" fill="#937EF3"/>
  <path d="M65.19,32.46 L63.81,27.15 C63.81,27.15 83.09,26.94 97.44,36.35 C122.13,52.53 119.4,70.6 119.4,70.6 C119.4,70.6 114.04,63.14 102.28,63.67 C90.52,64.2 86.2,74.7 86.2,74.7 L65.19,32.46 Z" fill="#5547F4"/>
  <path d="M84.12,1.12 C82.92,1.19 81.75,4.49 79.98,8.35 C78.21,12.21 74.96,16.02 76.56,21.65 C78.74,29.31 91.46,29.26 91.79,18.94 C91.9,15.4 88.76,10.39 87.76,7.96 C86.76,5.53 85.55,1.04 84.12,1.12 Z" fill="url(#SVGID_1_)"/>
  <path d="M80.6,14.11 C79.16,14.22 77.89,16.49 78.39,19.83 C78.89,23.17 81.23,24.03 82.31,23.53 C83.62,22.92 82.69,20.92 82.35,18.75 C82.01,16.58 82.74,13.94 80.6,14.11 Z" fill="#ACE8FE"/>
  <path d="M101.73,25.96 C100.59,25.89 100.55,28.59 97.22,34.06 C95.01,37.68 93.03,41.79 94.2,45.87 C96.47,53.77 109.24,53.42 109.57,43.11 C109.68,39.57 107.56,36.7 105.81,33.38 C104.58,31.07 102.65,26.02 101.73,25.96 Z" fill="url(#SVGID_2_)"/>
  <path d="M98.65,38.46 C97.38,38.03 95.58,40.24 95.74,43.55 C95.9,46.84 98.28,48.67 99.63,47.66 C100.89,46.71 99.35,44 99.35,42.32 C99.34,40.64 99.94,38.9 98.65,38.46 Z" fill="#ACE8FE"/>
  <path d="M22.75,28.56 C21.74,28.52 20.57,31.73 18.8,35.59 C17.03,39.45 13.78,41.78 14.93,47.96 C16.44,56.06 30.31,56.47 30.64,46.16 C30.75,42.62 27.84,37.87 26.66,35.53 C25.22,32.65 23.64,28.6 22.75,28.56 Z" fill="url(#SVGID_3_)"/>
  <path d="M18.43,41.6 C16.4,41.57 16.1,45.76 16.67,47.57 C17.23,49.35 18.07,50.88 19.79,50.49 C21.48,50.1 20.35,47.29 20.06,45.69 C19.77,44.08 20.05,41.63 18.43,41.6 Z" fill="#ACE8FE"/>
  <path d="M41.86,1.85 C40.72,1.75 39.89,4.55 39.47,5.5 C38.47,7.72 33.57,13.83 33.69,19.52 C33.82,25.87 38.86,27.55 42.07,27.43 C45.5,27.31 50.39,25.2 49.41,18.51 C49.03,15.94 47.56,13 46.25,10.07 C44.3,5.68 43.55,2 41.86,1.85 Z" fill="url(#SVGID_4_)"/>
  <path d="M38.54,14.73 C37.03,14.3 35.71,17.08 36.03,20.09 C36.33,22.97 37.8,24.71 39.04,24.34 C41.66,23.56 39.68,20.99 39.61,18.88 C39.55,17.01 39.88,15.11 38.54,14.73 Z" fill="#ACE8FE"/>
  <path d="M86.25,73.94 C86.25,73.94 85.18,56.28 81.08,47.2 C73.6,30.63 63.3,27.42 63.3,27.42 C63.3,27.42 50.9,33.51 44.39,48.54 C37.88,63.57 38.99,74.18 38.99,74.18 C38.99,74.18 49.02,62.72 63.62,64.3 C78.22,65.87 86.25,73.94 86.25,73.94 Z" fill="#6E62ED"/>
  <path d="M59.7,27.86 C59.57,27.35 59.68,20.56 59.64,19.1 C59.58,16.94 61.41,15.56 63.07,15.61 C65.23,15.67 65.99,17.58 66.05,18.91 C66.11,20.24 66.12,27.7 66.11,27.79 C66.03,28.57 64.89,29.31 62.87,29.31 C61.41,29.33 59.87,28.56 59.7,27.86 Z" fill="#6CA4AB"/>
  <path d="M86.18,76.22 C87.7,76.13 93.74,65.73 103.24,65.82 C116.13,65.95 117.78,72.64 119.13,71.96 C120.62,71.2 118.43,68.42 116.48,66.41 C113.73,63.57 109.32,61.85 102.48,62.29 C92.52,62.94 86.09,71.78 86.09,71.78 C86.09,71.78 77.59,62.51 62.7,62.51 C48.29,62.51 39,72.75 39,72.75 C39,72.75 34.29,64.42 22.83,64.22 C12.7,64.04 8.32,72.2 9.03,72.91 C9.74,73.62 15.14,67.15 22.7,67.48 C33.1,67.92 36.74,76.61 38.73,76.66 C40.72,76.71 48.48,66.23 62.88,66.48 C78.34,66.75 84.76,76.31 86.18,76.22 Z" fill="#004DAE"/>
  <path d="M63.16,33.82 C62.22,33.84 60.79,37.19 59.02,41.05 C57.25,44.91 53.59,49.11 55.71,54.56 C58.19,60.91 70.17,61.19 70.72,51.29 C70.92,47.75 67.85,43.06 66.8,40.66 C65.04,36.65 64.01,33.8 63.16,33.82 Z" fill="url(#SVGID_5_)"/>
  <path d="M58.48,48.04 C57.13,47.94 56.19,50.48 56.93,53.04 C57.68,55.64 59.24,56.7 60.53,56.19 C62.18,55.54 60.83,53.64 60.48,51.94 C60.13,50.24 60.53,48.19 58.48,48.04 Z" fill="#ACE8FE"/>
</svg>
